outputs/icons/file/png_attach_round.svg

<svg xmlns="http://www.w3.org/2000/svg" width="1200" height="1200" fill="none"><g fill="#000" clip-path="url(#a)"><path d="M828.76 50H157.079C98.186 50 50 99.5 50 160v880c0 60.5 47.65 110 106.544 110h886.376c58.895 0 107.08-49.5 107.08-110V380zm214.16 990H157.079V160H775.22v275h267.7z"/><path d="M198.291 949.995v-349h135q25.5-.001 45.5 8 20 7.501 33.5 22c9.333 9.665 16.334 21.335 21 35q7 20.499 7 46t-7 46c-4.666 13.665-11.667 25.335-21 35q-13.5 14.498-33.5 22.5-20 7.5-45.5 7.5h-59.5v127zm75.5-187.5h40.5q26.5-.001 36.5-10 10.5-9.997 10.5-33v-15q0-23.002-10.5-33-10-9.999-36.5-10h-40.5zM550.095 717.995h-5.5v232h-63.999v-349h89.999l79.5 232h5.5v-232h64v349h-90zM945.4 900.495h-4.5q-4.499 11.003-11 21c-4.335 6.665-9.665 12.665-16 18q-9.503 7.5-22.5 12-12.503 4.5-28.5 4.5-25.499 0-45.5-12-19.5-11.999-33-35t-20.5-56q-6.501-33.001-6.5-74.5c0-59.335 10.835-104.665 32.5-136q32.497-47.499 100.5-47.5 27.001 0 47.5 7.5c13.665 4.665 25.335 11.5 35 20.5q14.999 12.998 24.5 31.5 9.502 18.501 15 41l-70 17q-3.001-11.002-7-21-3.501-10.499-9.5-18.5t-15-12.5q-9.001-5.001-22-5-28.5.001-40.5 23.5-11.499 23.498-11.5 66v57q-.001 42.501 12.5 68c8.665 17 23.835 25.5 45.5 25.5q25.499 0 38-15t12.5-38.5v-25.5h-59.5v-53h126.5v186.5h-67z"/></g><defs><clipPath id="a"><path fill="#fff" d="M0 0h1200v1200H0z"/></clipPath></defs></svg>

<svg width="1200" height="1200" viewBox="0 0 1200 1200" fill="none" xmlns="http://www.w3.org/2000/svg"><g clip-path="url(#clip0_238_2702)"><path d="M828.76 50H157.079C98.186 50 50 99.5 50 160V1040C50 1100.5 97.65 1150 156.544 1150H1042.92C1101.815 1150 1150 1100.5 1150 1040V380L828.76 50ZM1042.92 1040H157.079V160H775.22V435H1042.92V1040Z" fill="black"/><path d="M198.291 949.995V600.995H333.291C350.291 600.995 365.457 603.66 378.791 608.995C392.125 613.995 403.291 621.33 412.291 630.995C421.624 640.66 428.625 652.33 433.291 665.995C437.957 679.66 440.291 694.995 440.291 711.995C440.291 728.995 437.957 744.33 433.291 757.995C428.625 771.66 421.624 783.33 412.291 792.995C403.291 802.66 392.125 810.16 378.791 815.495C365.457 820.495 350.291 822.995 333.291 822.995H273.791V949.995H198.291ZM273.791 762.495H314.291C331.957 762.495 344.125 759.16 350.791 752.495C357.791 745.83 361.291 734.83 361.291 719.495V704.495C361.291 689.16 357.791 678.16 350.791 671.495C344.125 664.83 331.957 661.495 314.291 661.495H273.791V762.495Z" fill="black"/><path d="M550.095 717.995H544.595V949.995H480.596V600.995H570.595L650.095 832.995H655.595V600.995H719.595V949.995H629.595L550.095 717.995Z" fill="black"/><path d="M945.4 900.495H940.9C937.9 907.83 934.235 914.83 929.9 921.495C925.565 928.16 920.235 934.16 913.9 939.495C907.565 944.495 900.065 948.495 891.4 951.495C883.065 954.495 873.565 955.995 862.9 955.995C845.9 955.995 830.735 951.995 817.4 943.995C804.4 935.995 793.4 924.33 784.4 908.995C775.4 893.66 768.565 874.995 763.9 852.995C759.565 830.995 757.4 806.16 757.4 778.495C757.4 719.16 768.235 673.83 789.9 642.495C811.565 610.83 845.065 594.995 890.4 594.995C908.4 594.995 924.235 597.495 937.9 602.495C951.565 607.16 963.235 613.995 972.9 622.995C982.9 631.66 991.065 642.16 997.4 654.495C1003.735 666.83 1008.735 680.495 1012.4 695.495L942.4 712.495C940.4 705.16 938.065 698.16 935.4 691.495C933.065 684.495 929.9 678.33 925.9 672.995C921.9 667.66 916.9 663.495 910.9 660.495C904.9 657.16 897.565 655.495 888.9 655.495C869.9 655.495 856.4 663.33 848.4 678.995C840.735 694.66 836.9 716.66 836.9 744.995V801.995C836.9 830.33 841.065 852.995 849.4 869.995C858.065 886.995 873.235 895.495 894.9 895.495C911.9 895.495 924.565 890.495 932.9 880.495C941.235 870.495 945.4 857.66 945.4 841.995V816.495H885.9V763.495H1012.4V949.995H945.4V900.495Z" fill="black"/></g><defs><clipPath id="clip0_238_2702"><path width="24" fill="white" d="M0 0H1200V1200H0V0z"/></clipPath></defs></svg>
